X: 25885
T: Matt Peoples'
R: reel
M: 4/4
K: Aminor
^G|A2 eA BAeA|B2 gB BAGB|A2 eA BAeA|BAGA BA A2|
A2 eA BAeA|B2 gB BAGB|A2 eA BAeA|BAGB A3||
^g|ae e2 agef|gB B2 g3 ^g|ae e2 agef|(3gfe dB BAA^g|
ae e2 agef|gB B2 g3 ^g|afge fdef|(3gfe dB BAGB||

